svg/binoculars.svg

<svg xmlns="http://www.w3.org/2000/svg" viewBox="0 0 32 32" enable-background="new 0 0 32 32"><path d="M 11 5 C 9.0324246 5 7.4597826 6.4414951 7.125 8.3125 C 5.2359745 8.7886073 3.5935337 10.018444 2.875 11.96875 L 2.84375 11.96875 L 0.71875 17.9375 C 0.26582757 18.863052 0 19.903751 0 21 C 0 24.854148 3.1458513 28 7 28 C 10.471624 28 13.365403 25.448353 13.90625 22.125 C 14.449196 22.659566 15.185962 23 16 23 C 16.814038 23 17.550804 22.659566 18.09375 22.125 C 18.634597 25.448353 21.528376 28 25 28 C 28.854148 28 32 24.854148 32 21 C 32 20.026447 31.799662 19.093879 31.4375 18.25 L 29.15625 11.875 L 29.125 11.84375 L 29.125 11.8125 C 28.395391 10.040591 26.77674 8.8003956 24.875 8.3125 C 24.540217 6.4414951 22.967575 5 21 5 C 19.142915 5 17.638423 6.2848308 17.1875 8 L 14.8125 8 C 14.361577 6.2848308 12.857085 5 11 5 z M 11 7 C 12.190196 7 13 7.8098039 13 9 L 13 10 L 14 10 L 18 10 L 19 10 L 19 9 C 19 7.8098039 19.809804 7 21 7 C 22.190196 7 23 7.8098039 23 9 L 23 9.90625 L 23.90625 10 C 25.392247 10.156421 26.672101 11.192362 27.25 12.53125 C 27.2591 12.55239 27.27248 12.57245 27.28125 12.59375 L 28.03125 14.71875 C 27.112106 14.273563 26.086233 14 25 14 C 22.075522 14 19.5752 15.817416 18.53125 18.375 C 17.995152 17.544443 17.052597 17 16 17 C 14.947403 17 14.004848 17.544443 13.46875 18.375 C 12.4248 15.817416 9.9244779 14 7 14 C 5.9282903 14 4.9097689 14.253428 4 14.6875 L 4.75 12.65625 L 4.75 12.625 C 5.3305473 11.076539 6.5584091 10.161615 8.09375 10 L 9 9.90625 L 9 9 C 9 7.8098039 9.8098039 7 11 7 z M 7 16 C 9.7732677 16 12 18.226732 12 21 C 12 23.773268 9.7732677 26 7 26 C 4.2267317 26 2 23.773268 2 21 C 2 20.291826 2.175079 19.64017 2.4375 19.03125 C 2.454016 18.992926 2.4513123 18.944063 2.46875 18.90625 C 3.2592583 17.192074 4.979476 16 7 16 z M 25 16 C 27.773268 16 30 18.226732 30 21 C 30 23.773268 27.773268 26 25 26 C 22.226732 26 20 23.773268 20 21 C 20 18.226732 22.226732 16 25 16 z M 16 19 C 16.564128 19 17 19.435872 17 20 C 17 20.564128 16.564128 21 16 21 C 15.435872 21 15 20.564128 15 20 C 15 19.435872 15.435872 19 16 19 z" color="#000" overflow="visible" enable-background="accumulate"/></svg>

<svg xmlns="http://www.w3.org/2000/svg" viewBox="0 0 32 32"><path d="M11 5C9.032 5 7.46 6.44 7.125 8.313c-1.89.476-3.53 1.705-4.25 3.656h-.03L.718 17.936C.265 18.863 0 19.904 0 21c0 3.854 3.146 7 7 7 3.472 0 6.365-2.552 6.906-5.875.543.535 1.28.875 2.094.875.814 0 1.55-.34 2.094-.875C18.634 25.448 21.528 28 25 28c3.854 0 7-3.146 7-7 0-.974-.2-1.906-.563-2.75l-2.28-6.375-.032-.03v-.033c-.73-1.77-2.348-3.012-4.25-3.5C24.54 6.442 22.968 5 21 5c-1.857 0-3.362 1.285-3.813 3h-2.375c-.45-1.715-1.955-3-3.812-3zm0 2c1.19 0 2 .81 2 2v1h6V9c0-1.19.81-2 2-2s2 .81 2 2v.906l.906.094c1.486.156 2.766 1.192 3.344 2.53.01.022.022.042.03.064l.75 2.125c-.918-.446-1.944-.72-3.03-.72-2.924 0-5.425 1.817-6.47 4.375C17.996 17.545 17.054 17 16 17c-1.053 0-1.995.544-2.53 1.375C12.424 15.817 9.923 14 7 14c-1.072 0-2.09.253-3 .688l.75-2.032v-.03c.58-1.55 1.808-2.464 3.344-2.626L9 9.906V9c0-1.19.81-2 2-2zm-4 9c2.773 0 5 2.227 5 5s-2.227 5-5 5-5-2.227-5-5c0-.708.175-1.36.438-1.97.016-.037.013-.086.03-.124C3.26 17.192 4.98 16 7 16zm18 0c2.773 0 5 2.227 5 5s-2.227 5-5 5-5-2.227-5-5 2.227-5 5-5zm-9 3c.564 0 1 .436 1 1 0 .564-.436 1-1 1-.564 0-1-.436-1-1 0-.564.436-1 1-1z"/></svg>
